X:0813
M:6/8
L:1/8
Q:3/8=60
K:D
z2z f2e|dA2 B>AF|   A3      \
    f2e|d2A Bgf |{f}e3      \
    f2e|d2A B>cd|   cBA Hd2 \
      A|FDF EDE |   D3   F<A||

